icons/bookmark-2-line.svg

<svg xmlns="http://www.w3.org/2000/svg" width="24" height="24" fill="none"><g clip-path="url(#a)"><g><path fill="#121212" d="M5 2H19C19.2652 2 19.5196 2.10536 19.7071 2.29289C19.8946 2.48043 20 2.73478 20 3V22.143C20.0001 22.2324 19.9763 22.3202 19.9309 22.3973C19.8855 22.4743 19.8204 22.5378 19.7421 22.5811C19.6639 22.6244 19.5755 22.6459 19.4861 22.6434C19.3968 22.641 19.3097 22.6146 19.234 22.567L12 18.03L4.766 22.566C4.69037 22.6135 4.60339 22.6399 4.5141 22.6424C4.42482 22.6449 4.33649 22.6235 4.2583 22.5803C4.1801 22.5371 4.11491 22.4738 4.06948 22.3969C4.02406 22.32 4.00007 22.2323 4 22.143V3C4 2.73478 4.10536 2.48043 4.29289 2.29289C4.48043 2.10536 4.73478 2 5 2ZM18 4H6V19.432L12 15.671L18 19.432V4ZM8 9H16V11H8V9Z"/></g></g><defs><clipPath id="a"><rect width="24" height="24" fill="white"/></clipPath></defs></svg>

<svg width="24" height="24" fill="none" xmlns="http://www.w3.org/2000/svg"><g clip-path="url(#a)"><path d="M5 2h14a1 1 0 0 1 1 1v19.143a.5.5 0 0 1-.766.424L12 18.03l-7.234 4.536A.5.5 0 0 1 4 22.143V3a1 1 0 0 1 1-1Zm13 2H6v15.432l6-3.761 6 3.761V4ZM8 9h8v2H8V9Z" /></g><defs><clipPath id="a"><path fill="#fff" d="M0 0h24v24H0z"/></clipPath></defs></svg>
